source/img/sprite/mail.svg

<svg width="22" height="22" viewBox="0 0 22 22" fill="none" xmlns="http://www.w3.org/2000/svg">
<path d="M21 5.55556V16.4444C21 17.3036 20.3604 18 19.5714 18H2.42857C1.63959 18 1 17.3036 1 16.4444V5.55556M21 5.55556C21 4.69645 20.3604 4 19.5714 4H2.42857C1.63959 4 1 4.69645 1 5.55556M21 5.55556L12.8594 13.1534C11.7895 14.152 10.2106 14.152 9.14062 13.1534L1 5.55556" stroke="#2D383F" stroke-linecap="round" stroke-linejoin="round"/>
</svg>

<svg viewBox="0 0 22 22" fill="none" xmlns="http://www.w3.org/2000/svg"><path d="M21 5.56v10.88c0 .86-.64 1.56-1.43 1.56h-17.14c-.79 0-1.43-.7-1.43-1.56v-10.88m20 0c0-.86-.64-1.56-1.43-1.56h-17.14c-.79 0-1.43.7-1.43 1.56m20 0-8.14 7.6c-1.07 1-2.65 1-3.72 0l-8.14-7.6" stroke="#2D383F" stroke-linecap="round" stroke-linejoin="round"/></svg>
